X: 291
M: C
L: 1/8
K: D
V: 1
d>AF>A d>Af>d | d>AF>A B<dc>A | d>AF>A G<BF<A | ~Be (g/f/e/d/) c<e~e>f |
d>AFA G>BFA | d>AFA B<ecA | d>fA=c BgG>B | (3cef (3gec (3dAG (3FED |]
V: 2 clef=bass middle=d
z |: d2d2 f2d2 | d2d2 A2A2 | d2d2 f2d2 | e2d2 c2A2 :|
d2d2 f2d2 | d2d2 g2a2 | d2d2 e2d2 | g2^g2 a2A2 |
d2d2 e2d2 | d2d2 g2a2 | d3=c G3^G | A2a2 A2z2 |]


